!!!COM: Mozart, Wolfgang Amadeus
!!!CDT: 1756/01/27/-1791/12/05/
!!!CNT: German
!!!OTL: Piano Sonata No. 16 in B-flat major
!!!SCT: K 576
!!!OMV: Mvmt. 2
!!!OMD: Adagio
!!!ODT: 1789///
**kern	**kern	**dynam
*staff2	*staff1	*staff1/2
*>[A,A,B,B,C,C,D,D1,D,D2,E,F,F,G,G,H]	*>[A,A,B,B,C,C,D,D1,D,D2,E,F,F,G,G,H]	*>[A,A,B,B,C,C,D,D1,D,D2,E,F,F,G,G,H]
*>norep[A,B,C,D,D2,E,F,G,H]	*>norep[A,B,C,D,D2,E,F,G,H]	*>norep[A,B,C,D,D2,E,F,G,H]
*>A	*>A	*>A
*clefF4	*clefG2	*clefG2
*k[b-e-a-]	*k[b-e-a-]	*k[b-e-a-]
*E-:	*E-:	*E-:
*M4/4	*M4/4	*M4/4
*met(c)	*met(c)	*met(c)
*MM60	*MM60	*MM60
=1-	=1-	=1-
4EE-/ 4E-/	(4g/ 4b-/	.
8r	8e-/ 8g/L	.
8BB-/	8B-/) 8f/J	.
4E-\	(8G/ 8e-/L	.
.	8B-/	.
8r	8e-/	.
(8BB-/	8d/) 8f/J	.
=2	=2	=2
*	*^	*
8E-/L	(8g/L	2e-\	.
8C/	8a-/	.	.
8GG/	8b-/	.	.
8AA-/J)	8cc/J	.	.
4.BB-/	(8.g/L)	4e-\	.
.	16a-/Jk	.	.
.	16f/LL	4d\	.
.	16g/	.	.
8r	16a-/	.	.
.	16an/JJ)	.	.
=3	=3	=3	=3
(4g\	(4bb-/	[2b-\	.
8e-\L	8gg/L	.	.
8B-\J	8ff/J	.	.
(8G\L)	2r	8b-\] (8ee-\L)	.
8B-'\	.	8dd'\ 8ff'\	.
8e-'\	.	8ee-'\ 8gg'\	.
8c'\J)	.	8ee-'\ 8aa-'\J)	.
*	*v	*v	*
=4	=4	=4
*^	*	*
8G\L	4r	8ee-\ (8bb-\L	.
8A-\ 8f\J	.	32bbn\LL	.
.	.	32ccc\	.
.	.	32aa-\	.
.	.	32ff\JJJ	.
*v	*v	*	*
*clefG2	*	*
*^	*	*
4B-\	(8g/L	8ee-\L	.
.	8a-/J)	32gg\LL	.
.	.	32ff\	.
.	.	32een\	.
.	.	(32ff\JJJ)	.
2r	[4e-/ (4a-/	4dd\ 4ff\	.
.	8e-/] 8g/)	8ee-\)	.
.	8r	8r	.
*v	*v	*	*
=5:|!|:	=5:|!|:	=5:|!|:
*>B	*>B	*>B
(8d/L	(4ff\	.
8B-/	.	.
8e-/	8gg\L	.
8B-/J)	8ee-\J	.
4B-/ 4f/	8.aa-\L	.
.	16ff\Jk	.
4r	16dd\LL	.
.	16ee-\	.
.	16ff\	.
.	16ff#\JJ	.
=6	=6	=6
8e-/L	8gg\L)	.
(8e-'/	(8gg'\	.
8e-'/ 8f'/	8aa-'\	.
8e-'/) 8f#'/J	8aan'\J)	.
4e-/ 4g/	(8.bb-\L	.
.	48ccc\LL	.
.	48bb-\	.
.	48aa-\JJJ	.
4r	16gg\LL	.
.	16aa-\	.
.	16bb-\	.
.	16bbn\JJ)	.
=7	=7	=7
8r	(4ccc\	.
8a-\ 8ee-\	.	.
8r	4bb-\	.
8g-\ 8ee-\	.	.
8r	4aan\	.
8f\ 8ee-\	.	.
8r	4aa-\)	.
8Bn/ 8d/	.	.
=8	=8	=8
4c/ 4e-/	(8gg\L	.
.	8eee-\	.
8A-/ 8c/L	8ff\	.
8a-/J	8ccc\J)	.
[4B-/ (4g/	(8.ee-\L	.
.	32ff\LL	.
.	32ee-\JJJ	.
8B-/] 8f/)	8dd\)	.
8r	8r	.
*clefF4	*	*
=9	=9	=9
4EE-/ 4E-/	(4g/ 4b-/	.
8r	8e-/ 8g/L	.
8BB-/	8B-/) 8f/J	.
4E-\	(8G/ 8e-/L	.
.	8B-/	.
8r	8e-/	.
(8BB-/	8d/) 8f/J	.
=10	=10	=10
*	*^	*
8E-/L	(8g/L	2e-\	.
8C/	8a-/	.	.
8GG/	8b-/	.	.
8AA-/J)	8cc/J)	.	.
4.BB-/	(8.g/L	4e-\	.
.	16a-/Jk	.	.
.	16f/LL	4d\	.
.	16g/	.	.
8r	16a-/	.	.
.	16an/JJ)	.	.
=11	=11	=11	=11
(4g\	(4bb-/	[2b-\	.
8e-\L	8gg/L	.	.
8B-\J	8ff/J	.	.
8G\L)	2r	8b-\] 8ee-\L	.
(8B-'\	.	8dd'\ (8ff'\)	.
8e-'\	.	8ee-'\ 8gg'\	.
8c'\J)	.	8ee-'\ 8aa-'\J)	.
*	*v	*v	*
=12	=12	=12
*^	*	*
8G\L	4r	8ee-\ (8bb-\L	.
8A-\ 8f\J	.	32bbn\LL	.
.	.	32ccc\	.
.	.	32aa-\	.
.	.	32ff\JJJ	.
*v	*v	*	*
*clefG2	*	*
*^	*	*
4B-\	(8g/L	8ee-\L	.
.	8a-/J)	32gg\LL	.
.	.	32ff\	.
.	.	32een\	.
.	.	32ff\JJJ)	.
2r	[4e-/ (4a-/	4dd\ (4ff\	.
.	8e-/] 8g/)	8ee-\)	.
.	8r	8r	.
*v	*v	*	*
=13:|!|:	=13:|!|:	=13:|!|:
*>C	*>C	*>C
16C\LL	8.ee-\ (8.gg\L	f
16c\	.	.
16c\	.	.
16c\JJ	16dd\ 16ff\Jk	.
16c\LL	8cc\ 8ee-\)	.
16c\	.	.
16c\	8r	.
16c\JJ	.	.
16BBn\LL	8.ff\ (8.aa-\L	.
16Bn\	.	.
16B\	.	.
16B\JJ	16ee-\ 16gg\Jk	.
16B\LL	8dd\ 8ff\)	.
16B\	.	.
16B\	8r	.
16B\JJ	.	.
=14	=14	=14
4c\	16r	.
.	16cc\ (16ee-\LL	.
.	16dd\ 16ff\	.
.	16ee-\ 16gg\JJ)	.
8A-\L	16ee-\ (16gg\LL	.
.	16dd\ 16ff\)	.
8F#\J	16dd\ (16ff\	.
.	16cc\ 16ee-\JJ)	.
16G\LL	4cc\ (4ee-\	.
16GG\	.	.
16G\	.	.
16G\JJ	.	.
(16G\LL	8bn\ 8dd\)	.
16Fn\	.	.
16E-\	8r	.
16D\JJ)	.	.
=15	=15	=15
4C/	16r	.
.	(16ee-\LL	.
.	16cc\	.
.	16a-\JJ	.
*clefG2	*	*
16r	8g/L	.
16c/ 16e-/LL	.	.
16c/ 16e-/	8f#/J)	.
16c/ 16e-/JJ	.	.
4B-/ 4d/	16r	.
.	(16bb-\LL	.
.	16gg\	.
.	16ee-\JJ	.
16r	8dd\L	.
16en/ 16g/LL	.	.
16e/ 16g/	8cc#\J)	.
16e/ 16g/JJ	.	.
=16	=16	=16
16d/ 16f#/	16r	.
16r	16dd\	f
16e-/	16r	.
16r	16g/ 16b-/	.
16c/	16r	.
16r	16an/ 16cc/	.
16d/	16r	.
16r	16f#/ 16a/	.
4G/	16r	.
.	(16g/LL	.
.	16a/	.
.	16bn/JJ	.
4r	16a\ 16cc\LL	.
.	16b\ 16dd\	.
.	16cc\ 16ee-\	.
.	16dd\ 16ffn\JJ)	.
=17:|!|:	=17:|!|:	=17:|!|:
*>D	*>D	*>D
16c/LL	4een\ (4gg\	.
16g/ 16b-/	.	.
16g/ 16b-/	.	.
16g/ 16b-/JJ	.	.
16c/LL	4ff\ 4aa-\	.
16f/ 16a-/	.	.
16f/ 16a-/	.	.
16f/ 16a-/JJ	.	.
16c/LL	4gg\ 4bb-\	.
16en/ 16g/	.	.
16e/ 16g/	.	.
16e/ 16g/JJ	.	.
16c/LL	8ff\ 8aa-\)	.
16f/ 16a-/	.	.
16c-/	8r	.
16f/ 16a-/JJ	.	.
=18	=18	=18
16B-/LL	4dd\ (4ff\	.
16f/ 16a-/	.	.
16f/ 16a-/	.	.
16f/ 16a-/JJ	.	.
16B-/LL	4ee-\ 4gg\	.
16e-/ 16g/	.	.
16e-/ 16g/	.	.
16e-/ 16g/JJ	.	.
16B-/LL	4ff\ 4aa-\	.
16d/ 16f/	.	.
16d/ 16f/	.	.
16d/ 16f/JJ	.	.
16B-/LL	8ee-\ 8gg\)	.
16e-/ 16g/	.	.
16e-/ 16g/	8r	.
16e-/ 16g/JJ	.	.
=19	=19	=19
4An/ 4c/	16r	.
.	(16ff#\LL	.
.	16gg\	.
.	16ff#\JJ	.
16r	8ddd\L	.
16Bn/ 16g/LL	.	.
16B/ 16g/	8ffn\J)	.
16B/ 16g/JJ	.	.
4c/ 4g/	16r	.
.	(16een\LL	.
.	16ff\	.
.	16ee\JJ	.
*clefF4	*	*
16r	8ccc\L	.
16A-\ 16c\LL	.	.
16A-\ 16c\	8ee-\J)	.
16A-\ 16c\JJ	.	.
=20	=20	=20
*^	*	*
4F\ 4A-\	2r	16r	.
.	.	(16dd-\LL	.
.	.	16cc\	.
.	.	16dd-\JJ	.
4r	.	16een\LL	.
.	.	16ff\	.
.	.	16gg\	.
.	.	16aa-\JJ)	.
*v	*v	*	*
*clefG2	*	*
*^	*	*
(16e-/LL	[4G\	(4cc\	.
16en/	.	.	.
16f/	.	.	.
16f#/JJ	.	.	.
8G/] 8g/)	4r	16bn\LL)	<
.	.	(16ddn\	.
8r	.	16ee-\	.
.	.	16ff\JJ)	.
*v	*v	*	*
*clefF4	*	*
=21	=21	=21
16C\LL	8.ee-\ (8.gg\L	f
16c\	.	.
16c\	.	.
16c\JJ	16dd\ 16ff\Jk	.
16c\LL	8cc\ 8ee-\)	.
16c\	.	.
16c\	8r	.
16c\JJ	.	.
16BBn\LL	8.ff\ (8.aa-\L	.
16Bn\	.	.
16B\	.	.
16B\JJ	16ee-\ 16gg\Jk	.
16B\LL	8dd\ 8ff\)	.
16B\	.	.
16B\	8r	.
16B\JJ	.	.
=22	=22	=22
(4c\	16r	.
.	16cc\ (16ee-\LL	.
.	16dd\ 16ff\	.
.	16ee-\ 16gg\JJ)	.
8A-\L	16ee-\ (16gg\LL	.
.	16dd\ 16ff\)	.
8F#\J	16dd\ (16ff\	.
.	16cc\ 16ee-\JJ)	.
16G\LL)	4cc\ (4ee-\	.
(16GG\	.	.
16G\)	.	.
16G'\JJ	.	.
(16G\LL	8bn\ 8dd\)	.
16Fn\	.	.
16E-\	8r	.
16D\JJ)	.	.
=23	=23	=23
4C/	16r	.
.	(16gg\LL	.
.	16ee-\	.
.	16bn\JJ	.
*clefG2	*	*
16r	8dd\L	.
16en/ 16g/LL	.	.
16e/ 16g/	8cc\J)	.
16e/ 16g/JJ	.	.
4f/ 4a-/	16r	.
.	(16ccc\LL	.
.	16aa-\	.
.	16een\JJ	.
16r	8gg\L	.
16an\ 16cc\LL	.	.
16a\ 16cc\	8ff#\J)	.
16a\ 16cc\JJ	.	.
=24	=24	=24
*>D1	*>D1	*>D1
16g/ 16bn/	16r	.
16r	16gg\	.
16a-/	16r	.
16r	16cc\ 16ee-\	.
16f/	16r	.
16r	16dd\ 16ffn\	.
16g/	16r	.
16r	16bn\ 16dd\	.
4c/	16r	.
.	(16b\LL	.
.	16cc\	.
.	16b\JJ	.
4r	16cc\LL	.
.	16b\ 16dd\	.
.	16cc\ 16ee-\	.
.	16dd\ 16ff\JJ)	.
=25:|!	=25:|!	=25:|!
*>D2	*>D2	*>D2
16g/ 16bn/	16r	.
16r	16gg\	.
16a-/	16r	.
16r	16cc\ 16ee-\	.
16f/	16r	.
16r	16dd\ 16ffn\	.
16g/	16r	.
16r	16bn\ 16dd\	.
4c/	16r	.
.	(16b\LL	p
.	16cc\	.
.	16b\JJ	.
16r	[4cc\	.
(16d#/ 16f#/LL	.	.
16en/ 16g/	.	.
16d#/ 16f#/JJ	.	.
=26	=26	=26
*>E	*>E	*>E
[4en/ [4g/	16cc\LL])	.
.	(16dd-\	.
.	16cc\	.
.	16dd-\JJ	.
16e/]) 16g/LL]	[4cc\	.
(16e/ 16g/	.	.
16fn/ 16a-/	.	.
16e/ 16g/JJ	.	.
[4f/ [4a-/	16cc\LL])	.
.	(16een\	.
.	16ff\	.
.	16aa-\JJ)	.
16f/]) 16a-/LL]	[4cc-\	.
(16e-/ 16g-/	.	.
16d/ 16f/	.	.
16e-/ 16g-/JJ	.	.
=27	=27	=27
[4d/ [4f/	16cc-\LL]	.
.	(16an\	.
.	16b-\	.
.	16a\JJ	.
16d/]) 16f/LL]	[4b-\	.
(16en/ 16gn/	.	.
16f/ 16a-/	.	.
16e/ 16g/JJ	.	.
4f/) 4a-/	16b-\LL])	.
.	(16cc#\	.
.	16dd\	.
.	16ee-\JJ	.
4r	16een\LL	.
.	16ff\	.
.	16ff#\	.
.	16gg\JJ)	.
=28	=28	=28
4.d/ 4.f/ 4.b-/	(8.bb-\L	.
.	16aan\Jk	.
.	8aa-\)	.
8r	8r	.
2r	16r	.
.	(16en/LL	.
.	16f/	.
.	16g/JJ	.
.	16a-/LL	.
.	16g/	.
.	16a-/	.
.	16an/JJ)	.
*clefF4	*	*
=29	=29	=29
4EE-/ 4E-/	(4g/ 4b-/	.
8r	8e-/ 8g/L	.
8BB-/	8B-/) 8f/J	.
4E-\	(8G/ 8e-/L	.
.	8B-/	.
8r	8e-/	.
(8BB-/	8d/) 8f/J	.
=30	=30	=30
*	*^	*
8E-/L	(8g/L	2e-\	.
8C/	8a-/	.	.
8GG/	8b-/	.	.
8AA-/J)	8cc/J	.	.
4.BB-/	(8.g/L)	4e-\	.
.	16a-/Jk	.	.
.	16f/LL	4d\	.
.	16g/	.	.
8r	16a-/	.	.
.	16an/JJ)	.	.
=31	=31	=31	=31
(4g\	(4bb-/	[2b-\	.
8e-\L	8gg/L	.	.
8B-\J	8ff/J	.	.
8G\L)	2r	8b-\] 8ee-\L)	.
(8B-'\	.	8dd'\ (8ff'\	.
8e-'\	.	8ee-'\ 8gg'\	.
8c'\J)	.	8ee-'\ 8aa-'\J)	.
*	*v	*v	*
=32	=32	=32
*^	*	*
8G\L	4r	8ee-\ (8bb-\L	.
8A-\ 8f\J	.	32bbn\LL	.
.	.	32ccc\	.
.	.	32aa-\	.
.	.	32ff\JJJ	.
*v	*v	*	*
*clefG2	*	*
*^	*	*
4B-\	(8g/L	8ee-\L	.
.	8a-/J)	32gg\LL	.
.	.	32ff\	.
.	.	32een\	.
.	.	32ff\JJJ)	.
2r	[4e-/ (4a-/	4dd\ (4ff\	.
.	8e-/] 8g/)	8ee-\)	.
.	8r	8r	.
*v	*v	*	*
*clefF4	*	*
=33!|:	=33!|:	=33!|:
*>F	*>F	*>F
16A-\LL	(4cc\	.
16e-\	.	.
16c\	.	.
16e-\JJ	.	.
16B-\LL	16ee-\LL	.
16e-\	16dd-\	.
16d-\	16b-\	.
16e-\JJ	16g\JJ	.
16c\LL	8.a-\L	.
16e-\	.	.
16A-\	.	.
16e-\JJ	32b-\LL	.
.	32cc\JJJ	.
16G\LL	8b-\)	.
16e-\	.	.
16E-\	8r	.
16e-\JJ	.	.
=34	=34	=34
16G\LL	(4dd-\	.
16e-\	.	.
16B-\	.	.
16e-\JJ	.	.
16A-\LL	16ff\LL	.
16e-\	16ee-\	.
16c\	16dd-\	.
16e-\JJ	16cc\JJ	.
16G\LL	8.b-\L	.
16e-\	.	.
16E-\	.	.
16e-\JJ	32cc\LL	.
.	32dd-\JJJ	.
16A-\LL	8cc\)	.
16e-\	.	.
16c\	8r	.
16e-\JJ	.	.
*clefG2	*	*
=35	=35	=35
16B-/LL	(8.ccc\L	.
16g/	.	.
16en/	.	.
16g/JJ	16een\Jk	.
16A-/LL	16ff\LL)	.
16f/	16gg'\	.
16c/	16aa-'\	.
16f/JJ	16aan'\JJ	.
16A-/LL	(8.bb-\L	.
16f/	.	.
16dn/	.	.
16f/JJ	16ddn\Jk	.
16G/LL	16ee-\LL)	.
16e-/	(16ff'\	.
16B-/	16ff#'\	.
16e-/JJ	16gg'\JJ)	.
=36	=36	=36
16A-/LL	(16gg\LL	.
16f/	16cc\	.
16c/	16aa-\	.
16f/JJ	16ffn\JJ)	.
16B-/LL	(16ff\LL	.
16g/	16ee-\)	.
16B-/	(16ee-\	.
16a-/JJ	16dd\JJ)	.
4e-/ 4g/	(16ee-\LL	.
.	16dd\	.
.	16ee-\	.
.	16ff\JJ	.
4r	16ee-\LL	.
.	16dd\	.
.	16dd-\	.
.	16b-\JJ)	.
=37:|!|:	=37:|!|:	=37:|!|:
*>G	*>G	*>G
*	*^	*
16e-/LL	4cc/	2an\	.
16g-/	.	.	.
16e-/	.	.	.
16g-/JJ	.	.	.
16e-/LL	(16bn/LL	.	.
16f/	16cc/	.	.
16e-/	16dd-/	.	.
16f/JJ	16cc/JJ	.	.
16dn/LL	8ff/L)	4a-\	.
16f/	.	.	.
16d/	8b-/J	.	.
16f/JJ	.	.	.
16d-/LL	(16an/LL	4g\	.
16e-/	16b-/	.	.
16d-/	16cc/	.	.
16e-/JJ	16b-/JJ)	.	.
=38	=38	=38	=38
16c/LL	(8ee-/L	(4g-\	.
16e-/	.	.	.
16c/	[8a-/J	.	.
16e-/JJ	.	.	.
8d-/L	16a-/LL])	16f\LL)	.
.	(16b-/	16gn\	.
8B-/J	16cc/	16a-\	.
.	16dd-/JJ)	16b-\JJ	.
*clefF4	*	*	*
16e-\LL	(4cc/	(4a-\	.
16dn\	.	.	.
16e-\	.	.	.
16d\JJ	.	.	.
16e-\LL	8b-/)	8g\)	.
16B-\	.	.	.
16G\	8r	8r	.
16E-\JJ	.	.	.
*	*v	*v	*
=39	=39	=39
16F\LL	(4aa-\	.
16c\	.	.
16A-\	.	.
16c\JJ	.	.
16A-\LL	16gg\LL	.
16f\	16ff\	.
16B-\	16ee-\	.
16f\JJ	16ddn\JJ)	.
16G\LL	(4ddd-\	.
16e-\	.	.
16B-\	.	.
16e-\JJ	.	.
*clefG2	*	*
16d/LL	16ccc\LL	.
16b-/	16bb-\	.
16e-/	16aa-\	.
16b-/JJ	16gg\JJ)	.
=40	=40	=40
8c/ 8a-/L	(16aa-\LL	.
.	16cc\	.
8d-/ 8f/J	16b-\	.
.	16ff\JJ	.
*clefF4	*	*
8E-\ 8c\L	16ee-\LL	.
.	16a-\	.
8E-\ 8B-\J	16dd-\	.
.	16g\JJ	.
[4A-\ (4d-\	4b-\	.
8A-\] 8c\)	16a-\LL	.
.	16b-\	.
8r	16bn\	.
.	16cc\JJ)	.
*clefG2	*	*
=41:|!	=41:|!	=41:|!
*>H	*>H	*>H
8en/ 8g/	16r	.
.	(16cc\LL	.
8r	16dd-\	.
.	16cc\JJ)	.
8f/ 8a-/	16r	.
.	(16cc\LL	.
8r	16ccc\	.
.	16cc\JJ)	.
8dn/ 8f/	16r	.
.	(16b-\LL	.
8r	16cc-\	.
.	16b-\JJ)	.
8e-/ 8g/	16r	.
.	(16b-\LL	.
8r	16bb-\	.
.	16b-\JJ)	.
=42	=42	=42
*^	*	*
2c/ 2e-/	2r	8r	.
.	.	(24an/LL	.
.	.	24b-/	.
.	.	24a/JJ	.
.	.	16ee-\LL	.
.	.	16a\	.
.	.	16gg-\	.
.	.	16a\JJ	.
16r	16r	([4b-\)	.
(16B-/LL	4.B-\	.	.
16d/	.	.	.
16f/JJ	.	.	.
8g-/L	.	16b-\LL]	.
.	.	16a\	.
8e-/J)	.	16gg-\	.
.	16r	16a\JJ)	.
=43	=43	=43	=43
16r	16r	([4b-\	.
(16B-/LL	4.B-\	.	.
16d/	.	.	.
16f/JJ	.	.	.
8g-/L	.	16b-\LL]	.
.	.	16an\	.
8e-/J)	.	16gg-\	.
.	16r	16a\JJ	.
16r	16r	([4b-\)	.
(16B-/LL	(4.B-\	.	.
16d/	.	.	.
16f/JJ	.	.	.
[4a-/)	.	16b-\LL]	.
.	.	16dd\	.
.	.	16ff\	.
.	16r	16aa-\JJ	.
*v	*v	*	*
=44	=44	=44
[2B-/) 2a-/_	16bbn\LL	.
.	16ccc\	.
.	16ddd\	.
.	16ccc\JJ	.
.	16bb-\LL	.
.	16aa-\	.
.	16gg\	.
.	16ff\JJ	.
4.B-/] 4.a-/]	8.ee-\L	.
.	32ff\LL	.
.	32ee-\JJJ	.
.	8dd\)	.
8r	8r	.
*clefF4	*	*
=45	=45	=45
4EE-/ 4E-/	(4g/ 4b-/	.
8r	8e-/ 8g/L	.
8BB-/	8B-/) 8f/J	.
4E-\	(8G/ 8e-/L	.
.	8B-/	.
8r	8e-/	.
8BB-/	8d/) 8f/J	.
=46	=46	=46
*	*^	*
(8E-/L	(8g/L	2e-\	.
8C/	8a-/	.	.
8GG/	8b-/	.	.
8AA-/J)	8cc/J)	.	.
4.BB-/	(8.g/L	4e-\	.
.	16a-/Jk	.	.
.	16f/LL	4d\	.
.	16g/	.	.
8r	16a-/	.	.
.	16an/JJ	.	.
=47	=47	=47	=47
(4g\	(4bb-/)	[2b-\	.
8e-\L	8gg/L	.	.
8B-\J	8ff/J	.	.
8G\L)	2r	8b-\] 8ee-\L)	.
(8B-'\	.	8dd'\ (8ff'\	.
8e-'\	.	8ee-'\ 8gg'\	.
8c'\J)	.	8ee-'\ 8aa-'\J)	.
*	*v	*v	*
=48	=48	=48
8G\L	8ee-\ (8bb-\L	.
8A-\ 8f\J	32bbn\LL	.
.	32ccc\	.
.	32aa-\	.
.	32ff\JJJ	.
*clefG2	*	*
8B-/ 8g/L	8ee-\L	.
8a-/J	32gg\LL	.
.	32ff\	.
.	32een\	.
.	32ff\JJJ)	.
[4e-/ (4a-/	4dd\ (4ff\	.
8e-/] 8g/)	8ee-\)	.
8r	8r	.
*clefF4	*	*
=49	=49	=49
(16E-\LL	(8.cc\L	<
16c\	.	.
16A-\	.	.
16c\JJ	16dd\Jk	.
16E-\LL	8ee-\L)	.
16c\	.	.
16A-\	8ee-\J	.
16c\JJ	.	.
16E-\LL	8.ee-\L	>
16B-\	.	.
16G\	.	.
16B-\JJ	32dd\LL	.
.	32cc\JJJ	.
16E-\LL	8b-\	.
16B-\	.	.
16G\	8r	.
16B-\JJ	.	.
=50	=50	=50
16E-\LL	(8.cc\L	<
16c\	.	.
16A-\	.	.
16c\JJ	16dd\Jk	.
16E-\LL	16ee-\LL)	.
16c\	16ee-\	.
16A-\	16ee-\	.
16c\JJ	16ee-\JJ	.
16E-\LL	(32ee-\LLL	>
.	32gg\	.
16B-\	32ff\	.
.	32ee-\JJJ	.
16G\	32dd\LLL	.
.	32ff\	.
16B-\JJ	32ee-\	.
.	32cc\JJJ	.
16E-\LL	8b-\)	.
16B-\	.	.
16G\	8r	.
16B-\JJ)	.	.
=51	=51	=51
4C/	16r	.
.	(16gg\LL	.
.	16aa-\	.
.	16ccc\JJ	.
*clefG2	*	*
16r	8een\L	.
16d/ 16b-/LL	.	.
16d/ 16b-/	8ff\J)	.
16d/ 16b-/JJ	.	.
4e-/ 4b-/	16r	.
.	(16ff#\LL	.
.	16gg\	.
.	16bb-\JJ	.
16r	8dd\L	.
16g/ 16b-/LL	.	.
16g/ 16b-/	8ee-\J)	.
16g/ 16b-/JJ	.	.
=52	=52	=52
4a-/ 4cc/	16r	.
.	(16een\LL	.
.	16ff\	.
.	16aa-\JJ	.
8r	16bn\LL	.
.	16cc\	.
8B-/ 8a-/	16ee-\	.
.	16dd\JJ	.
(4Bn/ 4a-/	4ff\	.
8c/) 8g/	8ee-\)	.
8r	8r	.
*clefF4	*	*
=53	=53	=53
(16F\LL	(4ee-\	.
16c\	.	.
16An\	.	.
16c\JJ	.	.
16E-\LL	16dd\LL	.
16c\	16cc\	.
16F\	16b-\	.
16c\JJ	16an\JJ)	.
16D\LL	(4aa-\	>
16B-\	.	.
16F\	.	.
16B-\JJ	.	.
16A-\LL	16gg\LL	.
16f\	16ff\	.
16B-\	16ee-\	.
16f\JJ)	16dd\JJ	.
=54	=54	=54
8G\ 8e-\L	16ee-\LL	.
.	16g\	.
8A-\ 8c\	16f\	.
.	16cc\JJ	.
8BB-\ 8G\	16b-/LL	.
.	16e-/	.
8BB-\ 8F\J	16a-/	.
.	16d/JJ	.
(16E-\LL	4e-/)	.
16G\	.	.
16B-'\)	.	.
16B-'\JJ	.	.
8B-'\	16r	.
.	(16aa-\LL	.
8r	16ff\	.
.	16dd\JJ	.
*clefG2	*	*
=55	=55	=55
(16e-/LL	4bb-\)	.
16g/	.	.
16b-'/)	.	.
16b-'/JJ	.	.
8b-'/	16r	.
.	(16aa-\LL	.
8r	16ff\	.
.	16dd\JJ	.
*clefF4	*	*
(16EE-/LL	4ee-\)	.
16GG/	.	.
16BB-'/	.	.
16BB-'/JJ)	.	.
8BB-'/	16r	.
.	(16a-/LL	.
8r	16f/	.
.	16d/JJ)	.
=56	=56	=56
(2BBB-/ 2BB-/	(2A-/ 2f/	.
8EE-/)	8G/) 8e-/	.
8r	8r	.
4r	4r	.
==	==	==
*-	*-	*-
!!!SMS: Alte Mozart-Ausgabe, Band 20, Breitkopf &amp; H&auml;rtel 1877-1883.
!!!ONB: Stich und Druck von Breitkopf &amp; H&auml;rtel in Leipzig
!!!ONB: Ausgegeben 1878
!!!ENC: Craig Stuart Sapp
!!!END: 2009/10/08/
!!!title: @{OTL}, K 576, @{OMV}
!!!hum2abc: --no-tempo -s 0.65 --spacing 2.0 -p "%gracespace  0 6.0 12.0"
